X:244
T:no name
R:jig
Z:id:hn-jig-244
M:6/8
K:Ador
AcA BGE|cde dBG|AcA BGE|EDE GAB|
AcA BGE|cde dBG|cBA BGE|1 EFG A2E:|2 EFG A2A||
|:ceA cea|~e3 edc|BdG BdG|Bde dcB|
cde dcB|cBA Ggf|ecA GED|1 EFG A2A:|2 EFG A2E||
